papirus/22x22/apps/netbeans.svg

<svg height="22" viewBox="0 0 22 22" width="22" xmlns="http://www.w3.org/2000/svg"><g transform="matrix(.49999062 0 0 .49999062 -.99977488 -503.17129)"><path d="m24.049662 1008.363c-.388665-.01-.772326.087-1.108971.2771l-15.881382 8.9641c-.655596.3701-1.059408 1.054-1.059309 1.7941v17.9283c-.000099.7401.403713 1.4241 1.059309 1.7941l15.881382 8.9642c.655506.3698 1.463112.3698 2.118618 0l15.881382-8.9642c.655596-.37 1.059408-1.054 1.059309-1.7941v-17.9283c.000099-.7401-.403713-1.424-1.059309-1.7941l-15.881382-8.9641c-.307485-.1736-.65466-.2689-1.009647-.2771z" fill="#e36d6d" overflow="visible"/><path d="m24 1048.3622c-.365778 0-.730836-.094-1.058589-.2787l-15.882822-8.9625c-.655596-.37-1.058688-1.0547-1.058589-1.7947v-17.9287c-.000036-.301.06669-.5926.189927-.8575l17.810073 9.8219z" fill="#f78d8d" opacity=".5" overflow="visible"/><path d="m24 1048.3622c.365778 0 .730836-.094 1.058589-.2787l15.882822-8.9625c.655596-.37 1.058688-1.0547 1.058589-1.7947v-17.9287c.000036-.301-.06669-.5926-.189927-.8575l-17.810073 9.8219z" fill="#e64d4d" opacity=".5" overflow="visible"/><path d="m24.048828 4c-.388665-.01-.770777.0872437-1.107422.2773438l-15.8828122 8.9648442c-.6555961.370099-1.0586928 1.052868-1.0585938 1.792968v1c-.000099-.7401.4029977-1.422869 1.0585938-1.792968l15.8828122-8.9648442c.336645-.1901001.718757-.2873438 1.107422-.2773438.354987.0082.702281.1037438 1.009766.2773438l15.882812 8.9648442c.655596.370099 1.058693 1.052868 1.058594 1.792968v-1c .000099-.7401-.402998-1.422869-1.058594-1.792968l-15.882812-8.9648442c-.307485-.1736-.654779-.2691438-1.009766-.2773438z" fill="#fff" opacity=".2" overflow="visible" transform="translate(0 1004.3622)"/><path d="m6 31.964844v1c-.000099.7401.4029977 1.422968 1.0585938 1.792968l15.8828122 8.964844c.655506.3698 1.461682.3698 2.117188 0l15.882812-8.964844c.655596-.369999 1.058693-1.052868 1.058594-1.792968v-1c .000099.7401-.402998 1.422969-1.058594 1.792968l-15.882812 8.964844c-.655506.3698-1.461682.3698-2.117188 0l-15.8828122-8.964844c-.6555961-.37-1.0586928-1.052868-1.0585938-1.792968z" opacity=".3" overflow="visible" transform="translate(0 1004.3622)"/></g></svg>

<?xml version="1.0" encoding="UTF-8" standalone="no"?>
<!-- Created with Inkscape (http://www.inkscape.org/) -->

<svg
   xmlns:dc="http://purl.org/dc/elements/1.1/"
   xmlns:cc="http://creativecommons.org/ns#"
   xmlns:rdf="http://www.w3.org/1999/02/22-rdf-syntax-ns#"
   xmlns:svg="http://www.w3.org/2000/svg"
   xmlns="http://www.w3.org/2000/svg"
   xmlns:sodipodi="http://sodipodi.sourceforge.net/DTD/sodipodi-0.dtd"
   xmlns:inkscape="http://www.inkscape.org/namespaces/inkscape"
   width="22"
   height="22"
   viewBox="0 0 22 22"
   id="svg4195"
   version="1.1"
   inkscape:version="0.91 r13725"
   sodipodi:docname="netbeans.svg">
  <defs
     id="defs4197" />
  <sodipodi:namedview
     id="base"
     pagecolor="#ffffff"
     bordercolor="#666666"
     borderopacity="1.0"
     inkscape:pageopacity="0.0"
     inkscape:pageshadow="2"
     inkscape:zoom="7.54"
     inkscape:cx="13.726425"
     inkscape:cy="28.953962"
     inkscape:document-units="px"
     inkscape:current-layer="layer1"
     showgrid="false"
     units="px"
     inkscape:window-width="1600"
     inkscape:window-height="849"
     inkscape:window-x="0"
     inkscape:window-y="0"
     inkscape:window-maximized="1" />
  <metadata
     id="metadata4200">
    <rdf:RDF>
      <cc:Work
         rdf:about="">
        <dc:format>image/svg+xml</dc:format>
        <dc:type
           rdf:resource="http://purl.org/dc/dcmitype/StillImage" />
        <dc:title></dc:title>
      </cc:Work>
    </rdf:RDF>
  </metadata>
  <g
     inkscape:label="Layer 1"
     inkscape:groupmode="layer"
     id="layer1"
     transform="translate(0,-1030.3622)">
    <g
       id="g4822"
       transform="matrix(0.49999062,0,0,0.49999062,-0.99977488,527.19091)">
      <path
         sodipodi:nodetypes="cccccccccccccc"
         inkscape:connector-curvature="0"
         id="path4147"
         d="m 24.049662,1008.363 c -0.388665,-0.01 -0.772326,0.087 -1.108971,0.2771 l -15.881382,8.9641 c -0.655596,0.3701 -1.059408,1.054 -1.059309,1.7941 l 0,17.9283 c -9.9e-5,0.7401 0.403713,1.4241 1.059309,1.7941 l 15.881382,8.9642 c 0.655506,0.3698 1.463112,0.3698 2.118618,0 l 15.881382,-8.9642 c 0.655596,-0.37 1.059408,-1.054 1.059309,-1.7941 l 0,-17.9283 c 9.9e-5,-0.7401 -0.403713,-1.424 -1.059309,-1.7941 l -15.881382,-8.9641 c -0.307485,-0.1736 -0.65466,-0.2689 -1.009647,-0.2771 z"
         style="color:#000000;font-style:normal;font-variant:normal;font-weight:normal;font-stretch:normal;font-size:medium;line-height:normal;font-family:sans-serif;text-indent:0;text-align:start;text-decoration:none;text-decoration-line:none;text-decoration-style:solid;text-decoration-color:#000000;letter-spacing:normal;word-spacing:normal;text-transform:none;direction:ltr;block-progression:tb;writing-mode:lr-tb;baseline-shift:baseline;text-anchor:start;white-space:normal;clip-rule:nonzero;display:inline;overflow:visible;visibility:visible;opacity:1;isolation:auto;mix-blend-mode:normal;color-interpolation:sRGB;color-interpolation-filters:linearRGB;solid-color:#000000;solid-opacity:1;fill:#e36d6d;fill-opacity:1;fill-rule:nonzero;stroke:none;stroke-width:4;stroke-linecap:square;stroke-linejoin:round;stroke-miterlimit:4;stroke-dasharray:none;stroke-dashoffset:0;stroke-opacity:1;color-rendering:auto;image-rendering:auto;shape-rendering:auto;text-rendering:auto;enable-background:accumulate" />
      <path
         style="color:#000000;font-style:normal;font-variant:normal;font-weight:normal;font-stretch:normal;font-size:medium;line-height:normal;font-family:sans-serif;text-indent:0;text-align:start;text-decoration:none;text-decoration-line:none;text-decoration-style:solid;text-decoration-color:#000000;letter-spacing:normal;word-spacing:normal;text-transform:none;direction:ltr;block-progression:tb;writing-mode:lr-tb;baseline-shift:baseline;text-anchor:start;white-space:normal;clip-rule:nonzero;display:inline;overflow:visible;visibility:visible;opacity:0.5;isolation:auto;mix-blend-mode:normal;color-interpolation:sRGB;color-interpolation-filters:linearRGB;solid-color:#000000;solid-opacity:1;fill:#f78d8d;fill-opacity:1;fill-rule:nonzero;stroke:none;stroke-width:4;stroke-linecap:square;stroke-linejoin:round;stroke-miterlimit:4;stroke-dasharray:none;stroke-dashoffset:0;stroke-opacity:1;color-rendering:auto;image-rendering:auto;shape-rendering:auto;text-rendering:auto;enable-background:accumulate"
         d="m 24,1048.3622 c -0.365778,0 -0.730836,-0.094 -1.058589,-0.2787 L 7.058589,1039.121 C 6.402993,1038.751 5.999901,1038.0663 6,1037.3263 l 0,-17.9287 c -3.6e-5,-0.301 0.06669,-0.5926 0.189927,-0.8575 L 24,1028.362 Z"
         id="path4157"
         inkscape:connector-curvature="0"
         sodipodi:nodetypes="cccccccc" />
      <path
         sodipodi:nodetypes="cccccccc"
         inkscape:connector-curvature="0"
         id="path4159"
         d="m 24,1048.3622 c 0.365778,0 0.730836,-0.094 1.058589,-0.2787 l 15.882822,-8.9625 c 0.655596,-0.37 1.058688,-1.0547 1.058589,-1.7947 l 0,-17.9287 c 3.6e-5,-0.301 -0.06669,-0.5926 -0.189927,-0.8575 L 24,1028.362 Z"
         style="color:#000000;font-style:normal;font-variant:normal;font-weight:normal;font-stretch:normal;font-size:medium;line-height:normal;font-family:sans-serif;text-indent:0;text-align:start;text-decoration:none;text-decoration-line:none;text-decoration-style:solid;text-decoration-color:#000000;letter-spacing:normal;word-spacing:normal;text-transform:none;direction:ltr;block-progression:tb;writing-mode:lr-tb;baseline-shift:baseline;text-anchor:start;white-space:normal;clip-rule:nonzero;display:inline;overflow:visible;visibility:visible;opacity:0.5;isolation:auto;mix-blend-mode:normal;color-interpolation:sRGB;color-interpolation-filters:linearRGB;solid-color:#000000;solid-opacity:1;fill:#e64d4d;fill-opacity:1;fill-rule:nonzero;stroke:none;stroke-width:4;stroke-linecap:square;stroke-linejoin:round;stroke-miterlimit:4;stroke-dasharray:none;stroke-dashoffset:0;stroke-opacity:1;color-rendering:auto;image-rendering:auto;shape-rendering:auto;text-rendering:auto;enable-background:accumulate" />
      <path
         id="path4774"
         transform="translate(0,1004.3622)"
         d="M 24.048828,4 C 23.660163,3.99 23.278051,4.0872437 22.941406,4.2773438 L 7.0585938,13.242188 C 6.4029977,13.612287 5.999901,14.295056 6,15.035156 l 0,1 c -9.9e-5,-0.7401 0.4029977,-1.422869 1.0585938,-1.792968 L 22.941406,5.2773438 C 23.278051,5.0872437 23.660163,4.99 24.048828,5 c 0.354987,0.0082 0.702281,0.1037438 1.009766,0.2773438 L 40.941406,14.242188 C 41.597002,14.612287 42.000099,15.295056 42,16.035156 l 0,-1 c 9.9e-5,-0.7401 -0.402998,-1.422869 -1.058594,-1.792968 L 25.058594,4.2773438 C 24.751109,4.1037438 24.403815,4.0082 24.048828,4 Z"
         style="color:#000000;font-style:normal;font-variant:normal;font-weight:normal;font-stretch:normal;font-size:medium;line-height:normal;font-family:sans-serif;text-indent:0;text-align:start;text-decoration:none;text-decoration-line:none;text-decoration-style:solid;text-decoration-color:#000000;letter-spacing:normal;word-spacing:normal;text-transform:none;direction:ltr;block-progression:tb;writing-mode:lr-tb;baseline-shift:baseline;text-anchor:start;white-space:normal;clip-rule:nonzero;display:inline;overflow:visible;visibility:visible;opacity:0.2;isolation:auto;mix-blend-mode:normal;color-interpolation:sRGB;color-interpolation-filters:linearRGB;solid-color:#000000;solid-opacity:1;fill:#ffffff;fill-opacity:1;fill-rule:nonzero;stroke:none;stroke-width:4;stroke-linecap:square;stroke-linejoin:round;stroke-miterlimit:4;stroke-dasharray:none;stroke-dashoffset:0;stroke-opacity:1;color-rendering:auto;image-rendering:auto;shape-rendering:auto;text-rendering:auto;enable-background:accumulate"
         inkscape:connector-curvature="0" />
      <path
         id="path4779"
         transform="translate(0,1004.3622)"
         d="m 6,31.964844 0,1 c -9.9e-5,0.7401 0.4029977,1.422968 1.0585938,1.792968 l 15.8828122,8.964844 c 0.655506,0.3698 1.461682,0.3698 2.117188,0 L 40.941406,34.757812 C 41.597002,34.387813 42.000099,33.704944 42,32.964844 l 0,-1 c 9.9e-5,0.7401 -0.402998,1.422969 -1.058594,1.792968 l -15.882812,8.964844 c -0.655506,0.3698 -1.461682,0.3698 -2.117188,0 L 7.0585938,33.757812 C 6.4029977,33.387812 5.999901,32.704944 6,31.964844 Z"
         style="color:#000000;font-style:normal;font-variant:normal;font-weight:normal;font-stretch:normal;font-size:medium;line-height:normal;font-family:sans-serif;text-indent:0;text-align:start;text-decoration:none;text-decoration-line:none;text-decoration-style:solid;text-decoration-color:#000000;letter-spacing:normal;word-spacing:normal;text-transform:none;direction:ltr;block-progression:tb;writing-mode:lr-tb;baseline-shift:baseline;text-anchor:start;white-space:normal;clip-rule:nonzero;display:inline;overflow:visible;visibility:visible;opacity:0.3;isolation:auto;mix-blend-mode:normal;color-interpolation:sRGB;color-interpolation-filters:linearRGB;solid-color:#000000;solid-opacity:1;fill:#000000;fill-opacity:1;fill-rule:nonzero;stroke:none;stroke-width:4;stroke-linecap:square;stroke-linejoin:round;stroke-miterlimit:4;stroke-dasharray:none;stroke-dashoffset:0;stroke-opacity:1;color-rendering:auto;image-rendering:auto;shape-rendering:auto;text-rendering:auto;enable-background:accumulate"
         inkscape:connector-curvature="0" />
    </g>
  </g>
</svg>
